src/assets/svg/twitter.svg

<?xml version="1.0" encoding="UTF-8"?>
<svg width="20px" height="17px" viewBox="0 0 20 17" version="1.1" xmlns="http://www.w3.org/2000/svg" xmlns:xlink="http://www.w3.org/1999/xlink">
    <!-- Generator: Sketch 50.2 (55047) - http://www.bohemiancoding.com/sketch -->
    <title>twitter</title>
    <desc>Created with Sketch.</desc>
    <defs></defs>
    <g id="Page-1" stroke="none" stroke-width="1" fill="none" fill-rule="evenodd">
        <g id="Artboard" transform="translate(-630.000000, -848.000000)" fill="#000000" fill-rule="nonzero">
            <g id="twitter" transform="translate(630.000000, 848.000000)">
                <path d="M20,2.01875 C19.4331641,2.88645833 18.7478849,3.62578125 17.9441624,4.23671875 C17.9526227,4.36067708 17.9568528,4.54661458 17.9568528,4.79453125 C17.9568528,5.94557292 17.7961083,7.09440104 17.4746193,8.24101562 C17.1531303,9.38763021 16.6645516,10.4877604 16.0088832,11.5414063 C15.3532149,12.5950521 14.572758,13.5269531 13.6675127,14.3371094 C12.7622673,15.1472656 11.6708968,15.7936198 10.393401,16.2761719 C9.11590525,16.758724 7.74957699,17 6.29441624,17 C4.00169205,17 1.9035533,16.3580729 0,15.0742188 C0.296108291,15.1096354 0.62605753,15.1273438 0.989847716,15.1273438 C2.89340102,15.1273438 4.58967851,14.5164062 6.0786802,13.2945312 C5.19035533,13.2768229 4.39509306,12.991276 3.6928934,12.4378906 C2.99069374,11.8845052 2.50846024,11.1783854 2.24619289,10.3195313 C2.52538071,10.3638021 2.78341794,10.3859375 3.02030457,10.3859375 C3.38409475,10.3859375 3.74365482,10.3372396 4.09898477,10.2398437 C3.15143824,10.0361979 2.36675127,9.54257812 1.74492386,8.75898438 C1.12309645,7.97539062 0.812182741,7.065625 0.812182741,6.0296875 L0.812182741,5.9765625 C1.38747885,6.31302083 2.00507614,6.49453125 2.66497462,6.52109375 C2.10659898,6.13151042 1.66243655,5.62239583 1.33248731,4.99375 C1.00253807,4.36510417 0.837563452,3.68333333 0.837563452,2.9484375 C0.837563452,2.16927083 1.02368866,1.44765625 1.39593909,0.78359375 C2.41962775,2.10286458 3.66539763,3.15872396 5.13324873,3.95117188 C6.60109983,4.74361979 8.17258883,5.18411458 9.84771574,5.27265625 C9.78003384,4.93619792 9.74619289,4.60859375 9.74619289,4.28984375 C9.74619289,3.10338542 10.1459391,2.09179688 10.9454315,1.25507812 C11.7449239,0.418359375 12.7115059,0 13.8451777,0 C15.0296108,0 16.0279188,0.4515625 16.8401015,1.3546875 C17.7622673,1.16875 18.6294416,0.8234375 19.4416244,0.31875 C19.1285956,1.33697917 18.5279188,2.125 17.6395939,2.6828125 C18.4263959,2.59427083 19.213198,2.37291667 20,2.01875 Z" id="Shape"></path>
            </g>
        </g>
    </g>
</svg>

<svg width="20" height="17" xmlns="http://www.w3.org/2000/svg"><path d="M20 2.019a8.818 8.818 0 0 1-2.056 2.218 12.714 12.714 0 0 1-.47 4.004 12.73 12.73 0 0 1-1.465 3.3 12.814 12.814 0 0 1-2.341 2.796c-.906.81-1.997 1.457-3.275 1.94-1.277.482-2.643.723-4.099.723-2.292 0-4.39-.642-6.294-1.926.296.036.626.053.99.053 1.903 0 3.6-.61 5.089-1.832a3.884 3.884 0 0 1-2.386-.857 4.196 4.196 0 0 1-1.447-2.118c.28.044.537.066.774.066.364 0 .724-.049 1.079-.146-.948-.204-1.732-.697-2.354-1.481-.622-.784-.933-1.693-.933-2.73v-.052a3.93 3.93 0 0 0 1.853.544 4.22 4.22 0 0 1-1.333-1.527 4.335 4.335 0 0 1-.494-2.046c0-.779.186-1.5.558-2.164A11.74 11.74 0 0 0 5.133 3.95a11.028 11.028 0 0 0 4.715 1.322 4.978 4.978 0 0 1-.102-.983c0-1.187.4-2.198 1.2-3.035C11.744.418 12.711 0 13.845 0c1.184 0 2.182.452 2.994 1.355A7.823 7.823 0 0 0 19.442.319c-.313 1.018-.914 1.806-1.802 2.364A7.882 7.882 0 0 0 20 2.019z" fill="#000" fill-rule="nonzero"/></svg>
